!!!!SEGMENT: pl-sa--359-a-vii-119--004_anonim--mottetto-de-nativitate-idlzmy-predko.krn
!!!cenid: 17xx:1349
!!!COM: Anonim
!!!COM-rismID: pe30004985
!!!CDT:
!!!CNT:
!!!OPR: Mottetto de Nativitate
!!!OTL: Idźmy prędko
!!!OMV: 004
!!!PDT: 1726
!!!AGN: Sacred; Motet; Christmas
!!!SMS-siglum: PL-SA
!!!SMS-shelfmark: 359/A VII 119
!!!SMS-shelfwork: 001-004 M
!!!SMS-variant: Violino 2do: PL-SA 359/A VII 119:13
!!!SMS-altvar: Violino 2do: PL-SA 359/A VII 119:15
!!!NIFC-rismSourceID: 1001069972
!!!NIFC-rismChildID: 1001069972
!!!NIFC-islandoraID: none
!!!URL-pdf-islandora:
!!!URL-scan: https://bc.bdsandomierz.pl/dlibra/publication/1663/edition/1631/content @EN{Scan in the Sandomierz Diocese Digital Library} @PL{Skany w portalu Cyfrowa Biblioteka Diecezjalna w Sandomierzu}
!!!ONB-nifc: UWAGA: części Mottetto; 1. Gloria in excelsis, 2. Kuba Michał czy śpicie, 3. Pastuszkowie z wesołością, 4. Idźmy prędko
!!!AIN: 1 alto 1 bass 1 organ 2 soprn 1 tenor 2 tromp 1 viola 2 violn
!!!key: C
**kern	**fba	**kern	**kern	**kern	**kern	**text	**kern	**text	**kern	**text	**kern	**text	**kern	**text	**kern	**kern
*	*	*group3	*group3	*group3	*group2	*	*group2	*	*group2	*	*group2	*	*group2	*	*group1	*group1
*part11	*part11	*part10	*part9	*part8	*part7	*part7	*part6	*part6	*part5	*part5	*part4	*part4	*part3	*part3	*part2	*part1
*staff11	*	*staff10	*staff9	*staff8	*staff7	*staff7	*staff6	*staff6	*staff5	*staff5	*staff4	*staff4	*staff3	*staff3	*staff2	*staff1
*I"Organo	*	*I"Viola	*I"Violino 2do	*I"[Violino 1]	*I"Baſso	*	*I"Tenore	*	*I"Alto	*	*I"Canto 2do	*	*I"Canto Primo	*	*I"Clarino 2do	*I"Clarino 1mo
*I'org	*	*I'vla	*I'vl 2	*I'vl 1	*I'B	*	*I'T	*	*I'A	*	*I'S 2	*	*I'S 1	*	*I'clno 2	*I'clno 1
*Iorgan	*	*Iviola	*Ivioln	*Ivioln	*Ibass	*	*Itenor	*	*Ialto	*	*Isoprn	*	*Isoprn	*	*Itromp	*Itromp
*ICklav	*	*ICstr	*ICstr	*ICstr	*ICvox	*	*ICvox	*	*ICvox	*	*ICvox	*	*ICvox	*	*ICbras	*ICbras
*IGcont	*	*IGacmp	*IGacmp	*IGacmp	*IGcoro	*	*IGcoro	*	*IGcoro	*	*IGcoro	*	*IGcoro	*	*IGacmp	*IGacmp
*clefF4	*	*clefF4	*clefG2	*clefG2	*clefF4	*	*clefC4	*	*clefC3	*	*clefC1	*	*clefC1	*	*clefG2	*clefG2
*k[]	*	*k[]	*k[]	*k[]	*k[]	*	*k[]	*	*k[]	*	*k[]	*	*k[]	*	*k[]	*k[]
*C:	*	*C:	*C:	*C:	*C:	*	*C:	*	*C:	*	*C:	*	*C:	*	*C:	*C:
*M2/2	*	*M2/2	*M2/2	*M2/2	*M2/2	*	*M2/2	*	*M2/2	*	*M2/2	*	*M2/2	*	*M2/2	*M2/2
*met(c|)	*	*met(c|)	*met(c|)	*met(c|)	*met(c)	*	*met(c|)	*	*met(c|)	*	*met(c|)	*	*met(c|)	*	*met(c)	*met(c)
*all\right	*	*all\right	*all\right	*all\right	*all\right	*	*all\right	*	*all\right	*	*all\right	*	*all\right	*	*all\right	*all\right
=1	=1	=1	=1	=1	=1	=1	=1	=1	=1	=1	=1	=1	=1	=1	=1	=1
!LO:TX:a:t=Tutti	!	!	!	!LO:TX:a:B:t=allegro	!	!	!	!	!	!	!	!	!	!	!	!
8r	.	8r	2r	2r	8r	.	8r	.	8r	.	8r	.	8r	.	2r	2r
16C/LL	.	16C/LL	.	.	16c\	Idz-	16c\	Idz-	16g\	Idz-	16cc\	Idz-	16ee\	Idz-	.	.
16BB/JJ	6	16BB/JJ	.	.	16B\	-my	16d\	-my	16g\	-my	16b\	-my	16dd\	-my	.	.
8C/L	.	8C/L	.	.	8c\	prę-	8c\	prę-	8g\	prę-	8cc\	prę-	8ee\	prę-	.	.
8BB/	6	8BB/	.	.	8B\	-dko	8d\	-dko	8g\	-dko	8g/	-dko	8dd\	-dko	.	.
8AA/	7	8AA/	4r	4r	8A\	nie	8c\	nie	8g\	nie	8a\	nie	8cc\	nie	4r	4r
8D/J	7 #	8D/J	.	.	8D/	mieſz-	8A\	mieſz-	8f#X\	mieſz-	8a\	mieſz-	8dd\	mieſz-	.	.
!	!	!	!	!	!	!	!LO:LB:g=original	!	!	!	!	!	!	!	!	!
8G\L	.	8G\L	16r	16r	8G\	-kay-	8B\	-kay-	8g\	-kay-	8g/	-kay-	8b\	-kay-	16r	16r
.	.	.	16ee\LL	16gg\LL	.	.	.	.	.	.	.	.	.	.	16ee\LL	16gg\LL
16c\L	.	16c\L	16ee\	16gg\	8GG/	-my	8B\	-my	8g\	-my	8g/	-my	8b\	-my	16ee\	16gg\
16B\JJ	6	16B\JJ	16dd\JJ	16gg\JJ	.	.	.	.	.	.	.	.	.	.	16dd\JJ	16gg\JJ
!	!	!	!	!	!	!	!	!	!LO:LB:g=original	!	!	!	!	!	!	!
=2	=2	=2	=2	=2	=2	=2	=2	=2	=2	=2	=2	=2	=2	=2	=2	=2
!LO:TX:t=P:problem=mixed beam	!	!	!	!	!	!	!	!	!	!	!	!	!	!	!	!
8c\L	.	8c\L	8ee\L	8gg\L	2r	.	2r	.	2r	.	2r	.	2r	.	8ee\L	8gg\L
8B\	6	8B\	16dd\L	16aa\L	.	.	.	.	.	.	.	.	.	.	8dd\	8gg\
.	.	.	16gg\JJ	16bb\JJ	.	.	.	.	.	.	.	.	.	.	.	.
8A\	7	8A\	16aa\LL	16ccc\LL	.	.	.	.	.	.	.	.	.	.	8cc\	8gg\
.	.	.	16gg\	16bb\	.	.	.	.	.	.	.	.	.	.	.	.
8D/J	7	8D\J	16aa\	16ccc\	.	.	.	.	.	.	.	.	.	.	8dd\J	8ff#X\J
.	.	.	16ff#X\JJ	16bb\JJ	.	.	.	.	.	.	.	.	.	.	.	.
!	!	!	!	!	!LO:LB:g=original	!	!	!	!	!	!	!	!	!	!LO:TX:t=P:problem=mixed beam	!
8G\L	.	8G\L	16gg\LL	16bb\LL	8r	.	8r	.	8r	.	8r	.	8r	.	8dd\L	8gg\L
.	.	.	16gg\	16bb\	.	.	.	.	.	.	.	.	.	.	.	.
16G\L	.	16G\L	16gg\	16bb\	16G\	idz-	16B\	idz-	16g\	Idz-	16b\	idz-	16dd\	idz-	16g/L	16dd\L
16F#X\JJ	6	16F#X\JJ	16gg\JJ	16bb\JJ	16F#X\	-my	16A\	-my	16a\	-my	16dd\	-my	16dd\	-my	16g/JJ	16dd\JJ
8G\L	.	8G\L	16gg\LL	16bb\LL	8G\	prę-	8B\	prę-	8g\	prę-	8b\	prę-	8dd\	prę-	8g/L	8dd\L
.	.	.	16gg\	16bb\	.	.	.	.	.	.	.	.	.	.	.	.
8D\J	#	8D\J	16gg\	16aa\	8D/	-dko	8A/	-dko	8f#X\	-dko	8a\	-dko	8dd\	-dko	8g/J	8dd\J
.	.	.	16ff#X\JJ	16aa\JJ	.	.	.	.	.	.	.	.	.	.	.	.
=3	=3	=3	=3	=3	=3	=3	=3	=3	=3	=3	=3	=3	=3	=3	=3	=3
8G\L	.	8G\L	16gg\LL	16bb\LL	4r	.	4r	.	4r	.	4r	.	4r	.	8g/L	8dd\L
.	.	.	16gg\	16bb\	.	.	.	.	.	.	.	.	.	.	.	.
8D\J	#	8D\J	16gg\	16aa\	.	.	.	.	.	.	.	.	.	.	8g/J	8dd\J
.	.	.	16ff#X\JJ	16aa\JJ	.	.	.	.	.	.	.	.	.	.	.	.
!LO:LB:g=original	!	!	!	!	!	!	!	!	!	!	!	!	!	!	!	!
!LO:TX:t=P:problem=mixed beam	!	!LO:TX:t=P:problem=mixed beam	!LO:LB:g=original	!	!	!	!	!	!	!	!	!	!	!	!	!
8GG/L	.	8GG/L	16gg\LL	16bb\LL	8r	.	8r	.	8r	.	8r	.	8r	.	8g/L	8dd\L
.	.	.	16gg\	16bb\	.	.	.	.	.	.	.	.	.	.	.	.
*	*	*	*	*	*	*	*	*	*	*	*	*ij	*	*	*	*
16G\L	.	16G\L	16gg\	16bb\	16G\	nie	16d\	idz-	16g\	idz-	16dd\	idz-	16b\	nie	16g/L	16dd\L
16F#X\JJ	6	16F#X\JJ	16gg\JJ	16bb\JJ	16F#X\	mieſz-	16A/	-my	16a\	-my	16a\	-my	16dd\	mieſz-	16g/JJ	16dd\JJ
8G\L	.	8G\L	16gg\LL	16bb\LL	8G\	-kay-	8d\	prę-	8g\	prę-	8g/	prę-	8b\	-kay-	8g/L	8dd\L
.	.	.	16gg\	16bb\	.	.	.	.	.	.	.	.	.	.	.	.
8D\	#	8D\	16gg\	16aa\	8D/	-my	8d\	-dko	8f#X\	-dko	8f#X/	-dko	8a\	-my	8g/	8dd\
*	*	*	*	*	*	*	*	*	*	*	*	*Xij	*	*	*	*
.	.	.	16ff#X\JJ	16aa\JJ	.	.	.	.	.	.	.	.	.	.	.	.
8G\	.	8G\	16gg\LL	16bb\LL	4r	.	4r	.	4r	.	4r	.	4r	.	8g/	8dd\
.	.	.	16gg\	16bb\	.	.	.	.	.	.	.	.	.	.	.	.
8D\J	#	8D\J	16gg\	16aa\	.	.	.	.	.	.	.	.	.	.	8g/J	8dd\J
.	.	.	16ff#X\JJ	16aa\JJ	.	.	.	.	.	.	.	.	.	.	.	.
!	!	!	!	!	!	!	!	!	!	!	!	!	!LO:LB:g=original	!	!	!LO:LB:g=original
=4	=4	=4	=4	=4	=4	=4	=4	=4	=4	=4	=4	=4	=4	=4	=4	=4
!LO:TX:t=P:problem=mixed beam	!	!LO:TX:t=P:problem=mixed beam	!	!	!	!	!	!	!	!	!	!	!	!	!	!
8AA/L	.	8AA/L	16ee\LL	16aa\LL	8r	.	8r	.	8r	.	8r	.	8r	.	8e/L	8e/L
.	.	.	16aa\	16ccc\	.	.	.	.	.	.	.	.	.	.	.	.
16A\L	.	16A\L	16aa\	16ccc\	16A\	idz-	16A/	idz-	16e\	Idz-	16a\	idz-	16cc\	idz-	16e/L	16e/L
16G#X\JJ	6	16G#X\JJ	16aa\JJ	16ccc\JJ	16G#X\	-my	16e\	-my	16e\	-my	16g#X\	-my	16b\	-my	16e/JJ	16e/JJ
!	!	!	!	!LO:LB:g=original	!	!	!	!	!	!	!LO:LB:g=original	!	!	!	!	!
8A\L	.	8A\L	16aa\LL	16ccc\LL	8A\	prę-	8A/	prę-	8e\	prę-	8a\	prę-	8cc\	prę-	8e/L	8e/L
.	.	.	16aa\	16ccc\	.	.	.	.	.	.	.	.	.	.	.	.
8E\	#	8E\	16aa\	16bb\	8E\	-dko	8G#X/	-dko	8e\	-dko	8g#X\	-dko	8b\	-dko	8e/J	8e/J
.	.	.	16gg#X\JJ	16bb\JJ	.	.	.	.	.	.	.	.	.	.	.	.
!	!	!	!	!	!	!	!	!	!	!	!	!	!	!	!LO:LB:g=original	!
8A\	.	8A\	16aa\LL	16ccc\LL	4r	.	4r	.	4r	.	4r	.	4r	.	8e/L	8e/L
.	.	.	16aa\	16ccc\	.	.	.	.	.	.	.	.	.	.	.	.
8E\J	#	8E\J	16aa\	16bb\	.	.	.	.	.	.	.	.	.	.	16e/L	16e/L
.	.	.	16gg#X\JJ	16bb\JJ	.	.	.	.	.	.	.	.	.	.	16e/JJ	16e/JJ
!LO:TX:t=P:problem=mixed beam	!	!LO:TX:t=P:problem=mixed beam	!	!	!	!	!	!	!	!	!	!	!	!	!	!
8AA/L	.	8AA/L	16aa\LL	16ccc\LL	8r	.	8r	.	8r	.	8r	.	8r	.	8e/L	8e/L
.	.	.	16aa\	16ccc\	.	.	.	.	.	.	.	.	.	.	.	.
16A\L	.	16A\L	16aa\	16ccc\	16A\	nie	16e\	idz-	16a\	idz-	16a\	nie	16cc\	nie	8e/J	8e/J
16G#X\JJ	.	16G#X\JJ	16aa\JJ	16ccc\JJ	16G#X\	mieſz-	16B\	-my	16b\	-my	16b\	mieſz-	16ee\	mieſz-	.	.
!	!	!LO:LB:g=original	!	!	!	!	!	!	!	!	!	!	!	!	!	!
=5	=5	=5	=5	=5	=5	=5	=5	=5	=5	=5	=5	=5	=5	=5	=5	=5
8A\L	.	8A\L	16aa\LL	16ccc\LL	8A\	-kay-	8c\	prę-	8a\	prę-	8cc\	-kay-	8ee\	-kay-	8e/L	8e/L
.	.	.	16aa\	16ccc\	.	.	.	.	.	.	.	.	.	.	.	.
8E\	#	8E\	16aa\	16bb\	8E\	-my	8B\	-dko	8g#X\	-dko	8b\	-my	8ee\	-my	8e/J	8e/J
.	.	.	16gg#X\JJ	16bb\JJ	.	.	.	.	.	.	.	.	.	.	.	.
!	!	!	!	!	!	!	!LO:LB:g=original	!	!	!	!	!	!	!	!	!
8A\	.	8A\	16aa\LL	16ccc\LL	4r	.	4r	.	4r	.	4r	.	4r	.	8e/L	8e/L
.	.	.	16aa\	16ccc\	.	.	.	.	.	.	.	.	.	.	.	.
8E\J	#	8E\J	16aa\	16bb\	.	.	.	.	.	.	.	.	.	.	16e/L	16e/L
.	.	.	16ggn\JJ	16bb\JJ	.	.	.	.	.	.	.	.	.	.	16e/JJ	16e/JJ
8Fn\L	.	8F\L	16ff\LL	16aa\LL	8r	.	8r	.	8r	.	8r	.	8r	.	8c/L	8c/L
.	.	.	16ff\	16aa\	.	.	.	.	.	.	.	.	.	.	.	.
16F\L	.	16F\L	16ff\	16aa\	16Fn\	idz-	16c\	nie	16a\	idz-	16fn/	idz-	16cc\	idz-	16c/L	16c/L
16E\JJ	6	16E\JJ	16ff\JJ	16aa\JJ	16E\	-my	16e\	mieſz-	16gn\	-my	16g/	-my	16cc\	-my	16c/JJ	16c/JJ
!	!	!	!	!	!	!	!	!	!LO:LB:g=original	!	!	!	!	!	!	!
8F\L	.	8F\L	16ff\LL	16aa\LL	8F\	prę-	8c\	kay-	8a\	prę-	8a\	prę-	8cc\	prę-	8c/L	8c/L
.	.	.	16ff\	16aa\	.	.	.	.	.	.	.	.	.	.	.	.
8C\J	.	8C\J	16ff\	16gg\	8C/	-dko	8e\	-my	8g\	-dko	8cc\	-dko	8cc\	-dko	8c/J	8c/J
.	.	.	16ee\JJ	16gg\JJ	.	.	.	.	.	.	.	.	.	.	.	.
!	!	!	!LO:LB:g=original	!	!LO:LB:g=original	!	!	!	!	!	!	!	!	!	!	!
=6	=6	=6	=6	=6	=6	=6	=6	=6	=6	=6	=6	=6	=6	=6	=6	=6
8F\L	.	8F\L	16ff\LL	16aa\LL	4r	.	4r	.	4r	.	4r	.	4r	.	8c/L	8c/L
.	.	.	16ff\	16aa\	.	.	.	.	.	.	.	.	.	.	.	.
8C\J	.	8C\J	16ff\	16gg\	.	.	.	.	.	.	.	.	.	.	16c/L	16c/L
.	.	.	16ee\JJ	16gg\JJ	.	.	.	.	.	.	.	.	.	.	16c/JJ	16c/JJ
!LO:TX:t=P:problem=mixed beam	!	!LO:TX:t=P:problem=mixed beam	!	!	!	!	!	!	!	!	!	!	!	!	!	!
8FF/L	.	8FF/L	16ff\LL	16aa\LL	8r	.	8r	.	8r	.	8r	.	8r	.	8c/L	8c/L
.	.	.	16ff\	16aa\	.	.	.	.	.	.	.	.	.	.	.	.
16F\L	.	16F\L	16ff\	16aa\	16F\	nie	16c\	nie	16f\	nie	16a\	nie	16cc\	nie	8c/J	8c/J
16E\JJ	6	16E\JJ	16ff\JJ	16aa\JJ	16E\	mieſz-	16c\	mieſz-	16g\	mieſz-	16cc\	mieſz-	16ee\	mieſz-	.	.
8F\L	.	8F\L	16ff\LL	16aa\LL	8F\	-kay-	8c\	-kay-	8a\	-kay-	8cc\	-kay-	8cc\	-kay-	8c/L	8c/L
.	.	.	16ff\	16aa\	.	.	.	.	.	.	.	.	.	.	.	.
8C\	.	8C\	16ff\	16gg\	8C/	-my	8c\	-my	8g\	-my	8cc\	-my	8ee\	-my	16c/L	16c/L
.	.	.	16ee\JJ	16gg\JJ	.	.	.	.	.	.	.	.	.	.	16c/JJ	16c/JJ
8F\	.	8F\	16ff\LL	16aa\LL	8F\	te-	8c\	te-	8f\	te-	8cc\	te-	8a\	te-	8c/L	8c/L
.	.	.	16ff\	16aa\	.	.	.	.	.	.	.	.	.	.	.	.
8E\J	6	8E\J	16ff\	16gg\	8E\	-go	8G/	-go	8g\	-go	8cc\	-go	8cc\	-go	8c/J	8c/J
.	.	.	16ee\JJ	16gg\JJ	.	.	.	.	.	.	.	.	.	.	.	.
!	!	!	!	!LO:LB:g=original	!	!	!	!	!	!	!	!	!LO:LB:g=original	!	!	!
=7	=7	=7	=7	=7	=7	=7	=7	=7	=7	=7	=7	=7	=7	=7	=7	=7
8D/L	6	8D/L	16ff\LL	16bb\LL	8D/	kro-	8B\	kro-	8f\	kro-	8b\	kro-	8dd\	kro-	8c/L	8c/L
.	.	.	16ff\	16bb\	.	.	.	.	.	.	.	.	.	.	.	.
8C/J	.	8C/J	16ee\	16ccc\	8C/	-la	8c\	-la	8e\	-la	8g/	-la	8ee\	-la	16c/L	16c/L
.	.	.	16ee\JJ	16ccc\JJ	.	.	.	.	.	.	.	.	.	.	16c/JJ	16c/JJ
!LO:LB:g=original	!	!	!	!	!	!	!	!	!	!	!	!	!	!	!	!
!LO:TX:t=P:problem=mixed beam	!	!LO:TX:t=P:problem=mixed beam	!	!	!	!	!	!	!	!	!	!	!	!	!	!
8G\L	4	8G\L	16ee\LL	16ccc\LL	8G\	przy-	8.c\	przy-	8d\	przy-	8g/	przy-	8.dd\	przy-	8c/L	8c/L
.	.	.	16ee\	16ccc\	.	.	.	.	.	.	.	.	.	.	.	.
8GG/J	3	8GG/J	16dd\	16bb\	8GG/	-wi-	.	.	16g\LL	-wi-	8g/	-wi-	.	.	16c/L	16c/L
.	.	.	16dd\JJ	16bb\JJ	.	.	16B\	-wi-	16f\JJ	.	.	.	16dd\	-wi-	16c/JJ	16c/JJ
!	!	!	!	!	!	!	!	!	!	!	!LO:LB:g=original	!	!	!	!	!LO:LB:g=original
8C/L	.	8C/L	16ee\LL	16ccc\LL	8C/	-tay-	8c\	-tay-	8e\	-tay-	8cc\	-tay-	8cc\	-tay-	8c/L	8c/L
.	.	.	16gg\	16ccc\	.	.	.	.	.	.	.	.	.	.	.	.
8C/J	.	8C/J	16gg\	16ccc\	8C/	-my	8G/	-my	8e\	-my	8cc\	-my	8cc\	-my	8c/J	8c/J
.	.	.	16gg\JJ	16ccc\JJ	.	.	.	.	.	.	.	.	.	.	.	.
8r	.	8r	16gg\LL	16ccc\LL	8r	.	8r	.	8r	.	8r	.	8r	.	16r	8r
.	.	.	16gg\	16ccc\	.	.	.	.	.	.	.	.	.	.	16e/LL	.
16G\LL	.	16G\LL	16gg\	16bb\	16G\	przy-	16G/	przy-	16g\	przy-	16b\	przy-	16dd\	przy-	16g/	16g/LL
16G\JJ	.	16G\JJ	16gg\JJ	16bb\JJ	16G\	-wi-	16B\	-wi-	16g\	-wi-	16b\	-wi-	16dd\	-wi-	16g/JJ	16g/JJ
!	!	!	!	!	!	!	!LO:LB:g=original	!	!	!	!	!	!	!	!LO:LB:g=original	!
=8	=8	=8	=8	=8	=8	=8	=8	=8	=8	=8	=8	=8	=8	=8	=8	=8
8C/L	.	8C/L	16gg\LL	16ccc\LL	8C/	-tay-	8c\	-tay-	8g\	-tay-	8cc\	-tay-	8ee\	-tay-	8e/L	8g/L
.	.	.	16gg\	16ccc\	.	.	.	.	.	.	.	.	.	.	.	.
8C/J	.	8C/J	16gg\	16ccc\	8C/	-my	8G/	-my	8g\	-my	8cc\	-my	8ee\	-my	8e/J	8g/J
.	.	.	16gg\JJ	16ccc\JJ	.	.	.	.	.	.	.	.	.	.	.	.
8r	.	8r	16gg\LL	16ccc\LL	8r	.	8r	.	8r	.	8r	.	8r	.	8r	8r
.	.	.	16gg\	16ccc\	.	.	.	.	.	.	.	.	.	.	.	.
16G\LL	.	16G\LL	16gg\	16bb\	16G\	przy-	16G/	przy-	16g\	przy-	16b\	przy-	16dd\	przy-	16g/LL	16g/LL
16G\JJ	.	16G\JJ	16gg\JJ	16bb\JJ	16G\	-wi-	16B\	-wi-	16g\	-wi-	16b\	-wi-	16dd\	-wi-	16g/JJ	16g/JJ
!LO:TX:t=P:problem=mixed beam	!	!LO:TX:t=P:problem=mixed beam	!	!	!	!	!	!	!LO:LB:g=original	!	!	!	!	!	!	!
8c\L	.	8c\L	16gg\LL	16ccc\LL	8C/	-tay-	8e\	-tay-	8g\	-tay-	8cc\	-tay-	8cc\	-tay-	8e/L	8g/L
.	.	.	16gg\	16ccc\	.	.	.	.	.	.	.	.	.	.	.	.
8C/J	.	8C/J	16gg\	16ccc\	8C/	-my	8e\	-my	8g\	-my	8cc\	-my	8cc\	-my	8e/J	8g/J
.	.	.	16gg\JJ	16ccc\JJ	.	.	.	.	.	.	.	.	.	.	.	.
8r	.	8r	16gg\LL	16ccc\LL	8r	.	8r	.	8r	.	8r	.	8r	.	8r	8r
.	.	.	16gg\	16ccc\	.	.	.	.	.	.	.	.	.	.	.	.
8G\	.	8G\	16gg\	16bb\	8G\	wi-	8d\	wi-	8g\	wi-	8g/	Wi-	8b\	wi-	8g/	8g/
.	.	.	16gg\JJ	16bb\JJ	.	.	.	.	.	.	.	.	.	.	.	.
!	!	!LO:LB:g=original	!LO:LB:g=original	!	!LO:LB:g=original	!	!	!	!	!	!	!	!	!	!	!
=9	=9	=9	=9	=9	=9	=9	=9	=9	=9	=9	=9	=9	=9	=9	=9	=9
4C/	.	4C/	16bb\LL	16ccc\LL	8C/	-tay-	8e\	-tay-	8e\	-tay-	8g/	-tay-	8cc\	-tay-	8c/L	8e/L
.	.	.	16bb\	16ccc\	.	.	.	.	.	.	.	.	.	.	.	.
.	.	.	16bb\	16ccc\	16C/	-my	16d\	-my	16e\	-my	16b\	-my	16dd\	-my	16c/L	16e/L
.	.	.	16bb\JJ	16ccc\JJ	16D/	wi-	16c\	wi-	16e\	wi-	16cc\	wi-	16ee\	wi-	16c/JJ	16e/JJ
!	!	!	!	!	!	!	!	!	!	!	!	!	!LO:LB:g=original	!	!	!
8E\L	6	8E\L	16bb\LL	16ccc\LL	8E\	-tay-	8c\	-tay-	8g\	-tay-	8cc\	-tay-	8ee\	-tay-	8e/L	8g/L
.	.	.	16bb\	16ccc\	.	.	.	.	.	.	.	.	.	.	.	.
8G\J	.	8G\J	16bb\	16bb\	16G\	-my	16B\	-my	16d\	-my	16b\	-my	16dd\	-my	16g/L	16e/L
.	.	.	16bb\JJ	16bb\JJ	16G\	wi-	16B\	wi-	16g\	wi-	16b\	wi-	16dd\	wi-	16g/JJ	16e/JJ
8C/L	.	8C/L	8gg\L	8ccc\L	8C/	-tay-	8G/	-tay-	8e\	-tay-	8cc\	-tay-	4ee\	-tay-	8e/L	8c/L
8C/J	.	8C/J	8gg\J	8ccc\J	8C/	-my	8G/	-my	8e\	-my	8cc\	-my	.	.	8c/J	8c/J
4r	.	4r	4r	4r	4r	.	4r	.	4r	.	4r	.	4ee\	-my	4r	4r
!	!	!	!	!LO:LB:g=original	!	!	!	!	!	!	!LO:LB:g=original	!	!	!	!	!
=10||	=10||	=10||	=10||	=10||	=10||	=10||	=10||	=10||	=10||	=10||	=10||	=10||	=10||	=10||	=10||	=10||
*M2/2	*	*M2/2	*M2/2	*M2/2	*M2/2	*	*	*	*	*	*	*	*	*	*M2/2	*M2/2
*met(c|)	*	*met(c|)	*met(c|)	*met(c|)	*met(c|)	*	*	*	*	*	*	*	*	*	*met(c|)	*met(c|)
!LO:TX:b:t=Stanku	!	!	!	!LO:TX:b:t=Stanku	!	!	!	!	!	!	!	!	!	!	!	!
!LO:TX:a:i:t=solo	!	!	!LO:TX:a:i:t=solo	!LO:TX:a:i:t=solo	!LO:TX:b:i:t=solo	!	!LO:TX:a:t=Stanku\nTacet	!	!LO:TX:a:t=Stanku\nTacet	!	!LO:TX:a:t=Stanku Tacet	!	!LO:TX:a:t=Stanku \nTacet	!	!LO:TX:b:t=Stańku	!LO:TX:b:t=Stanku
8C/L	.	16C/LL	16c/LL	16c/LL	8C/	Stan-	1ryy	.	1ryy	.	1ryy	.	1ryy	.	1r	1r
.	.	16D/	16d/	16d/	.	.	.	.	.	.	.	.	.	.	.	.
8D/	.	16E/	16e/	16e/	8D/	-ku	.	.	.	.	.	.	.	.	.	.
.	.	16D/JJ	16d/JJ	16d/JJ	.	.	.	.	.	.	.	.	.	.	.	.
8E/	6	16C/LL	16c/LL	16c/LL	8E\	mia-	.	.	.	.	.	.	.	.	.	.
.	.	16D/	16d/	16d/	.	.	.	.	.	.	.	.	.	.	.	.
8C/J	.	16E/	16e/	16e/	8C/	-rę	.	.	.	.	.	.	.	.	.	.
.	.	16C/JJ	16c/JJ	16c/JJ	.	.	.	.	.	.	.	.	.	.	.	.
8G\L	.	16G\LL	16g/LL	16g/LL	8G\	day	.	.	.	.	.	.	.	.	.	.
.	.	16A\	16a/	16a/	.	.	.	.	.	.	.	.	.	.	.	.
8A\	.	16B\	16b/	16b/	8r	.	.	.	.	.	.	.	.	.	.	.
.	.	16A\JJ	16a/JJ	16a/JJ	.	.	.	.	.	.	.	.	.	.	.	.
8B\	6	16G\LL	16g/LL	16g/LL	8B\	day	.	.	.	.	.	.	.	.	.	.
.	.	16A\	16a/	16a/	.	.	.	.	.	.	.	.	.	.	.	.
8G\J	.	16B\	16b/	16b/	8r	.	.	.	.	.	.	.	.	.	.	.
.	.	16G\JJ	16g/JJ	16g/JJ	.	.	.	.	.	.	.	.	.	.	.	.
=11	=11	=11	=11	=11	=11	=11	=11	=11	=11	=11	=11	=11	=11	=11	=11	=11
8c\L	.	16c\LL	16cc\LL	16cc\LL	8c\	day	1ryy	.	1ryy	.	1ryy	.	1ryy	.	2r	2r
.	.	16c\	16cc\	16cc\	.	.	.	.	.	.	.	.	.	.	.	.
8B\	6	16B\	16dd\	16dd\	8B\	z_kieł-	.	.	.	.	.	.	.	.	.	.
.	.	16B\JJ	16dd\JJ	16dd\JJ	.	.	.	.	.	.	.	.	.	.	.	.
8c\	.	16c\LL	16ee\LL	16ee\LL	8c\	-ba-	.	.	.	.	.	.	.	.	.	.
.	.	16c\	16ee\	16ee\	.	.	.	.	.	.	.	.	.	.	.	.
8G\J	.	16G\	16dd\	16dd\	8G\	-sy	.	.	.	.	.	.	.	.	.	.
.	.	16G\JJ	16dd\JJ	16dd\JJ	.	.	.	.	.	.	.	.	.	.	.	.
!LO:LB:g=original	!	!	!	!	!LO:TX:b:i:t=Verte citiſsime	!	!	!	!	!	!	!	!	!	!	!
8C/L	.	16C/LL	16c/LL	16c/LL	2r	.	.	.	.	.	.	.	.	.	4r	8g/L
.	.	16D/	16d/	16d/	.	.	.	.	.	.	.	.	.	.	.	.
8D/	.	16E/	16e/	16e/	.	.	.	.	.	.	.	.	.	.	.	16g/L
.	.	16D/JJ	16d/JJ	16d/JJ	.	.	.	.	.	.	.	.	.	.	.	16g/JJ
!	!	!	!LO:LB:g=original	!	!	!	!	!	!	!	!	!	!	!	!	!
8E/	6	16C/LL	16c/LL	16c/LL	.	.	.	.	.	.	.	.	.	.	8g/L	8e/L
.	.	16D/	16d/	16d/	.	.	.	.	.	.	.	.	.	.	.	.
8C/J	.	16E/	16e/	16e/	.	.	.	.	.	.	.	.	.	.	16g/L	16e/L
.	.	16C/JJ	16c/JJ	16c/JJ	.	.	.	.	.	.	.	.	.	.	16g/JJ	16e/JJ
!	!	!LO:LB:g=original	!	!	!LO:LB:g=original	!	!	!	!	!	!	!	!	!	!	!LO:LB:g=original
=12	=12	=12	=12	=12	=12	=12	=12	=12	=12	=12	=12	=12	=12	=12	=12	=12
!LO:TX:t=P:problem=mixed beam	!	!	!	!	!LO:TX:t=P:problem=partia basu urywa się	!	!	!	!	!	!	!	!	!	!	!LO:N:vis=16
8F\L	6 5	16F\LL	16f/LL	16f/LL	1ryy	.	1ryy	.	1ryy	.	1ryy	.	1ryy	.	8e/L	8c/L
.	.	16E\	16e/	16e/	.	.	.	.	.	.	.	.	.	.	.	.
8D\	.	16F\	16f/	16f/	.	.	.	.	.	.	.	.	.	.	16e/L	16c/L
.	.	16C\JJ	16d/JJ	16d/JJ	.	.	.	.	.	.	.	.	.	.	16e/JJ	16c/JJ
8G\	4	16G\LL	16g/LL	16g/LL	.	.	.	.	.	.	.	.	.	.	8c/L	8g/L
.	.	16F\	16f/	16f/	.	.	.	.	.	.	.	.	.	.	.	.
8GG/J	3	16E\	16e/	16e/	.	.	.	.	.	.	.	.	.	.	16G/L	16g/L
.	.	16D\JJ	16d/JJ	16d/JJ	.	.	.	.	.	.	.	.	.	.	16G/JJ	16g/JJ
!	!	!	!	!LO:LB:g=original	!	!	!	!	!	!	!	!	!	!	!	!
8c\L	.	16c\LL	16cc\LL	16cc\LL	.	.	.	.	.	.	.	.	.	.	8c/L	8e/L
.	.	16B\	16b\	16b\	.	.	.	.	.	.	.	.	.	.	.	.
8B\	6	16c\	16cc\	16cc\	.	.	.	.	.	.	.	.	.	.	8c/J	8c/J
.	.	16B\JJ	16b\JJ	16b\JJ	.	.	.	.	.	.	.	.	.	.	.	.
8A\	7	16A\LL	16a/LL	16a/LL	.	.	.	.	.	.	.	.	.	.	4r	4r
.	.	16G\	16g/	16g/	.	.	.	.	.	.	.	.	.	.	.	.
8E\J	6	16F\	16f/	16f/	.	.	.	.	.	.	.	.	.	.	.	.
.	.	16E\JJ	16e/JJ	16e/JJ	.	.	.	.	.	.	.	.	.	.	.	.
!	!	!	!	!	!	!	!	!	!	!	!	!	!	!	!LO:LB:g=original	!
=13	=13	=13	=13	=13	=13	=13	=13	=13	=13	=13	=13	=13	=13	=13	=13	=13
!LO:TX:t=P:problem=mixed beam	!	!	!	!	!	!	!	!	!	!	!	!	!	!	!	!
8F\L	6 5	16F\LL	16f/LL	16f/LL	1ryy	.	1ryy	.	1ryy	.	1ryy	.	1ryy	.	0r	0r
.	.	16E\	16e/	16e/	.	.	.	.	.	.	.	.	.	.	.	.
8D\	.	16F\	16f/	16f/	.	.	.	.	.	.	.	.	.	.	.	.
.	.	16D\JJ	16d/JJ	16d/JJ	.	.	.	.	.	.	.	.	.	.	.	.
8G\	.	16G\LL	16g/LL	16g/LL	.	.	.	.	.	.	.	.	.	.	.	.
.	.	16F\	16f/	16f/	.	.	.	.	.	.	.	.	.	.	.	.
8GG/J	.	16E\	16e/	16e/	.	.	.	.	.	.	.	.	.	.	.	.
.	.	16D\JJ	16d/JJ	16d/JJ	.	.	.	.	.	.	.	.	.	.	.	.
8C\L	.	16C\LL	16c/LL	16c/LL	.	.	.	.	.	.	.	.	.	.	.	.
.	.	16D\	16d/	16d/	.	.	.	.	.	.	.	.	.	.	.	.
8D\	6	16E\	16e/	16e/	.	.	.	.	.	.	.	.	.	.	.	.
.	.	16D\JJ	16d/JJ	16d/JJ	.	.	.	.	.	.	.	.	.	.	.	.
8E\	6	16C\LL	16c/LL	16c/LL	.	.	.	.	.	.	.	.	.	.	.	.
.	.	16D\	16d/	16d/	.	.	.	.	.	.	.	.	.	.	.	.
8F\J	.	16E\	16e/	16e/	.	.	.	.	.	.	.	.	.	.	.	.
.	.	16F\JJ	16f/JJ	16f/JJ	.	.	.	.	.	.	.	.	.	.	.	.
=14	=14	=14	=14	=14	=14	=14	=14	=14	=14	=14	=14	=14	=14	=14	=14	=14
8G\L	.	16G\LL	16g/LL	16g/LL	1ryy	.	1ryy	.	1ryy	.	1ryy	.	1ryy	.	.	.
.	.	16A\	16a/	16a/	.	.	.	.	.	.	.	.	.	.	.	.
8A\	.	16B\	16b/	16b/	.	.	.	.	.	.	.	.	.	.	.	.
.	.	16A\JJ	16a/JJ	16a/JJ	.	.	.	.	.	.	.	.	.	.	.	.
8B\	6	16G\LL	16g/LL	16g/LL	.	.	.	.	.	.	.	.	.	.	.	.
.	.	16A\	16a/	16a/	.	.	.	.	.	.	.	.	.	.	.	.
8G\J	.	16B\	16b/	16b/	.	.	.	.	.	.	.	.	.	.	.	.
.	.	16G\JJ	16g/JJ	16g/JJ	.	.	.	.	.	.	.	.	.	.	.	.
!	!	!LO:LB:g=original	!LO:LB:g=original	!	!	!	!	!	!	!	!	!	!	!	!	!
8c\L	.	16c\LL	16cc\LL	16cc\LL	.	.	.	.	.	.	.	.	.	.	.	.
.	.	16B\	16b\	16b\	.	.	.	.	.	.	.	.	.	.	.	.
8G\	.	16A\	16a\	16a\	.	.	.	.	.	.	.	.	.	.	.	.
.	.	16G\JJ	16g\JJ	16g\JJ	.	.	.	.	.	.	.	.	.	.	.	.
8A\	.	16A\LL	16a/LL	16a/LL	.	.	.	.	.	.	.	.	.	.	.	.
.	.	16G\	16g/	16g/	.	.	.	.	.	.	.	.	.	.	.	.
8E\J	.	16F\	16f/	16f/	.	.	.	.	.	.	.	.	.	.	.	.
.	.	16E\JJ	16e/JJ	16e/JJ	.	.	.	.	.	.	.	.	.	.	.	.
=15	=15	=15	=15	=15	=15	=15	=15	=15	=15	=15	=15	=15	=15	=15	=15	=15
!LO:TX:t=P:problem=mixed beam	!	!	!	!	!	!	!	!	!	!	!	!	!	!	!	!
8F\L	6 5	16F\LL	16f/LL	16f/LL	1ryy	.	1ryy	.	1ryy	.	1ryy	.	1ryy	.	1r	1r
.	.	16E\	16e/	16e/	.	.	.	.	.	.	.	.	.	.	.	.
8D\	.	16F\	16f/	16f/	.	.	.	.	.	.	.	.	.	.	.	.
.	.	16D\JJ	16d/JJ	16d/JJ	.	.	.	.	.	.	.	.	.	.	.	.
!	!	!	!	!LO:LB:g=original	!	!	!	!	!	!	!	!	!	!	!	!
8G\	4	16G\LL	16g/LL	16g/LL	.	.	.	.	.	.	.	.	.	.	.	.
.	.	16F\	16f/	16f/	.	.	.	.	.	.	.	.	.	.	.	.
8GG/J	3	16E\	16e/	16e/	.	.	.	.	.	.	.	.	.	.	.	.
.	.	16D\JJ	16d/JJ	16d/JJ	.	.	.	.	.	.	.	.	.	.	.	.
!LO:TX:t=P:problem=mixed beam	!	!	!	!	!	!	!	!	!	!	!	!	!	!	!	!
8C/L	.	8C/	8c/	8c/	.	.	.	.	.	.	.	.	.	.	.	.
8G\	.	8r	8r	8r	.	.	.	.	.	.	.	.	.	.	.	.
8F#X\	6	4r	4r	4r	.	.	.	.	.	.	.	.	.	.	.	.
8D\J	.	.	.	.	.	.	.	.	.	.	.	.	.	.	.	.
=16	=16	=16	=16	=16	=16	=16	=16	=16	=16	=16	=16	=16	=16	=16	=16	=16
!LO:TX:t=P:problem=mixed beam	!	!	!	!	!	!	!	!	!	!	!	!	!	!	!	!
8E\L	6	16C\LL	16c/LL	16c/LL	1ryy	.	1ryy	.	1ryy	.	1ryy	.	1ryy	.	2r	2r
.	.	16D\	16d/	16d/	.	.	.	.	.	.	.	.	.	.	.	.
8F#X\	6 5	16E\	16e/	16e/	.	.	.	.	.	.	.	.	.	.	.	.
.	.	16F\JJ	16f/JJ	16f/JJ	.	.	.	.	.	.	.	.	.	.	.	.
8G\	4	16G\LL	16g/LL	16g/LL	.	.	.	.	.	.	.	.	.	.	.	.
.	.	16F\	16f/	16f/	.	.	.	.	.	.	.	.	.	.	.	.
8GG/J	3	16E\	16e/	16e/	.	.	.	.	.	.	.	.	.	.	.	.
.	.	16D\JJ	16d/JJ	16d/JJ	.	.	.	.	.	.	.	.	.	.	.	.
!LO:LB:g=original	!	!	!	!	!	!	!	!	!	!	!	!	!	!	!	!
8C\L	.	16C\LL	16c/LL	16c/LL	.	.	.	.	.	.	.	.	.	.	16ee\LL	16gg\LL
.	.	16D\	16d/	16d/	.	.	.	.	.	.	.	.	.	.	16ff\	16aa\
8D\	.	16E\	16e/	16e/	.	.	.	.	.	.	.	.	.	.	16ee\	16gg\
.	.	16D\JJ	16d/JJ	16d/JJ	.	.	.	.	.	.	.	.	.	.	16dd\JJ	16ff\JJ
8E\	6	16C\LL	16c/LL	16c/LL	.	.	.	.	.	.	.	.	.	.	16cc\LL	16ee\LL
.	.	16D\	16d/	16d/	.	.	.	.	.	.	.	.	.	.	16ee\	16gg\
8F#X\J	6 5	16E\	16e/	16e/	.	.	.	.	.	.	.	.	.	.	16dd\	16ff\
.	.	16F\JJ	16f/JJ	16f/JJ	.	.	.	.	.	.	.	.	.	.	16cc\JJ	16ee\JJ
=17	=17	=17	=17	=17	=17	=17	=17	=17	=17	=17	=17	=17	=17	=17	=17	=17
!LO:TX:t=P:problem=mixed beam	!	!	!	!	!	!	!	!	!	!	!	!	!	!	!	!
8G\L	.	16G\LL	16g/LL	16g/LL	1ryy	.	1ryy	.	1ryy	.	1ryy	.	1ryy	.	8.g/L	8.dd\L
.	.	16F\	16f/	16f/	.	.	.	.	.	.	.	.	.	.	.	.
8GG/	.	16E\	16e/	16e/	.	.	.	.	.	.	.	.	.	.	.	.
.	.	16D\JJ	16d/JJ	16d/JJ	.	.	.	.	.	.	.	.	.	.	16g/Jk	16dd\Jk
!	!	!LO:LB:g=original	!	!	!	!	!	!	!	!	!	!	!	!	!	!
8C/	.	16C/LL	16c/LL	16c/LL	.	.	.	.	.	.	.	.	.	.	8e/	8cc\
.	.	16C/	16c/	16c/	.	.	.	.	.	.	.	.	.	.	.	.
8GG/J	.	16GG/	16G/	16G/	.	.	.	.	.	.	.	.	.	.	8r	8r
.	.	16AA/JJ	16A/JJ	16A/JJ	.	.	.	.	.	.	.	.	.	.	.	.
!	!	!	!LO:LB:g=original	!	!	!	!	!	!	!	!	!	!	!	!	!
8AA/L	6\	16BB/LL	16B/LL	16B/LL	.	.	.	.	.	.	.	.	.	.	2r	2r
.	.	16AA/	16A/	16A/	.	.	.	.	.	.	.	.	.	.	.	.
8BB/	6	16GG/	16G/	16G/	.	.	.	.	.	.	.	.	.	.	.	.
.	.	16AA/JJ	16A/JJ	16A/JJ	.	.	.	.	.	.	.	.	.	.	.	.
8C/	6 5	16C/LL	16c/LL	16c/LL	.	.	.	.	.	.	.	.	.	.	.	.
.	.	16AA/J	16A/J	16A/J	.	.	.	.	.	.	.	.	.	.	.	.
8D/J	#	8D/J	8d/J	8d/J	.	.	.	.	.	.	.	.	.	.	.	.
!	!	!	!	!LO:LB:g=original	!	!	!	!	!	!	!	!	!	!	!	!
=18	=18	=18	=18	=18	=18	=18	=18	=18	=18	=18	=18	=18	=18	=18	=18	=18
!LO:TX:t=P:problem=mixed beam	!	!	!	!	!	!	!	!	!	!	!	!	!	!	!	!
8G\L	.	16GG/LL	16G/LL	16G/LL	1ryy	.	1ryy	.	1ryy	.	1ryy	.	1ryy	.	4r	4r
.	.	16AA/	16A/	16A/	.	.	.	.	.	.	.	.	.	.	.	.
8GG/J	.	16BB/	16B/	16B/	.	.	.	.	.	.	.	.	.	.	.	.
.	.	16AA/JJ	16A/JJ	16A/JJ	.	.	.	.	.	.	.	.	.	.	.	.
8C/L	.	16C/LL	16c/LL	16c/LL	.	.	.	.	.	.	.	.	.	.	8cc\L	8ee\L
.	.	16D/	16d/	16d/	.	.	.	.	.	.	.	.	.	.	.	.
8BB/	6	16BB/	16B/	16B/	.	.	.	.	.	.	.	.	.	.	8g\J	8dd\J
.	.	16C/JJ	16c/JJ	16c/JJ	.	.	.	.	.	.	.	.	.	.	.	.
!	!	!	!	!	!	!	!	!	!	!	!	!	!	!	!LO:TX:t=P:problem=mixed beam	!
8AA/	7	16AA/LL	16A/LL	16A/LL	.	.	.	.	.	.	.	.	.	.	8e/L	8cc\L
.	.	16C/	16c/	16c/	.	.	.	.	.	.	.	.	.	.	.	.
8E/J	.	16D/	16d/	16d/	.	.	.	.	.	.	.	.	.	.	8ee\J	8gg\J
.	.	16E/JJ	16e/JJ	16e/JJ	.	.	.	.	.	.	.	.	.	.	.	.
8F\L	.	16F\LL	16f/LL	16f/LL	.	.	.	.	.	.	.	.	.	.	16dd\LL	16ff\LL
.	.	16E\	16e/	16e/	.	.	.	.	.	.	.	.	.	.	16ee\	16gg\
8C\J	.	16D\	16d/	16d/	.	.	.	.	.	.	.	.	.	.	16cc\	16ee\
.	.	16C\JJ	16c/JJ	16c/JJ	.	.	.	.	.	.	.	.	.	.	16dd\JJ	16ff\JJ
=19	=19	=19	=19	=19	=19	=19	=19	=19	=19	=19	=19	=19	=19	=19	=19	=19
!LO:TX:t=P:problem=mixed beam	!	!	!	!	!	!	!	!	!	!	!	!	!	!	!	!
8G\L	.	16G\LL	16g/LL	16g/LL	1ryy	.	1ryy	.	1ryy	.	1ryy	.	1ryy	.	8g/L	8dd\L
.	.	16F\	16f/	16f/	.	.	.	.	.	.	.	.	.	.	.	.
8GG/	.	16E\	16e/	16e/	.	.	.	.	.	.	.	.	.	.	8g/J	8dd\J
.	.	16D\JJ	16d/JJ	16d/JJ	.	.	.	.	.	.	.	.	.	.	.	.
!	!	!	!	!	!	!	!	!	!	!	!	!	!	!	!LO:TX:t=P:problem=mixed beam	!LO:LB:g=original
8C/	.	16C\LL	16c/LL	16c/LL	.	.	.	.	.	.	.	.	.	.	16e/LL	16cc\LL
.	.	16D\	16d/	16d/	.	.	.	.	.	.	.	.	.	.	16cc\	16ee\
8C/J	.	16E\	16e/	16e/	.	.	.	.	.	.	.	.	.	.	16cc\	16ee\
.	.	16F\JJ	16f/JJ	16f/JJ	.	.	.	.	.	.	.	.	.	.	16cc\JJ	16ee\JJ
!	!	!LO:LB:g=original	!	!	!	!	!	!	!	!	!	!	!	!	!	!
8GG/L	.	16G\LL	16g/LL	16g/LL	.	.	.	.	.	.	.	.	.	.	16g/LL	16dd\LL
.	.	16F\	16f/	16f/	.	.	.	.	.	.	.	.	.	.	16g/JJ	16dd\
8C/J	.	16E\	16e/	16e/	.	.	.	.	.	.	.	.	.	.	16cc\LL	16ee\
.	.	16C\JJ	16c/JJ	16c/JJ	.	.	.	.	.	.	.	.	.	.	16cc\JJ	16ee\JJ
!LO:TX:t=P:problem=mixed beam	!	!	!	!	!	!	!	!	!	!	!	!	!	!	!	!
8G\L	.	16D\LL	16d/LL	16d/LL	.	.	.	.	.	.	.	.	.	.	16g/LL	16dd\LL
.	.	16E\	16e/	16e/	.	.	.	.	.	.	.	.	.	.	16g/JJ	16dd\
8C/J	.	16F\	16f/	16f/	.	.	.	.	.	.	.	.	.	.	16cc\LL	16ee\
.	.	16G\JJ	16g/JJ	16g/JJ	.	.	.	.	.	.	.	.	.	.	16cc\JJ	16ee\JJ
!	!	!	!LO:LB:g=original	!	!	!	!	!	!	!	!	!	!	!	!LO:LB:g=original	!
=20	=20	=20	=20	=20	=20	=20	=20	=20	=20	=20	=20	=20	=20	=20	=20	=20
!LO:TX:t=P:problem=mixed beam	!	!	!	!	!	!	!	!	!	!	!	!	!	!	!	!
8E\L	6	16E\LL	16e/LL	16e/LL	1ryy	.	1ryy	.	1ryy	.	1ryy	.	1ryy	.	16g/LL	16cc\LL
.	.	16E\	16e/	16e/	.	.	.	.	.	.	.	.	.	.	16e/	16g\
8F\	6 5	16F\	16f/	16f/	.	.	.	.	.	.	.	.	.	.	16e/	16g\
.	.	16A\JJ	16a/JJ	16a/JJ	.	.	.	.	.	.	.	.	.	.	16e/JJ	16g\JJ
8G\	4	16G\LL	16g/LL	16g/LL	.	.	.	.	.	.	.	.	.	.	16c/LL	16g/LL
.	.	16F\	16f/	16f/	.	.	.	.	.	.	.	.	.	.	16G/	16g/
8GG/J	3	16E\	16e/	16e/	.	.	.	.	.	.	.	.	.	.	16G/	16g/
.	.	16D\JJ	16d/JJ	16d/JJ	.	.	.	.	.	.	.	.	.	.	16G/JJ	16g/JJ
2C/	.	2C;/	2c/	2c/	.	.	.	.	.	.	.	.	.	.	16c/LL	16e/LL
.	.	.	.	.	.	.	.	.	.	.	.	.	.	.	16c/	16c/
.	.	.	.	.	.	.	.	.	.	.	.	.	.	.	16c/	16c/
.	.	.	.	.	.	.	.	.	.	.	.	.	.	.	16c/JJ	16c/JJ
.	.	.	.	.	.	.	.	.	.	.	.	.	.	.	8c/L	8c/L
!	!	!LO:TX:b:t=Idzmy prędko\nUt ſupra	!LO:TX:b:t=Idzmy prędko Ut ſupra	!LO:TX:b:t=Idzmy prędko ut ſupra	!	!	!LO:TX:b:t=Idzmy prędko ut ſupra	!	!LO:TX:b:t=Idzmy prędko ut ſupra	!	!LO:TX:b:t=Idzmy prędko ut ſupra	!	!LO:TX:b:t=Idzmy prędko\nut ſupra	!	!LO:TX:b:t=Idzmy prędko Ut ſupra	!LO:TX:b:t=Idzmy prędko\nut ſupra
.	.	.	.	.	.	.	.	.	.	.	.	.	.	.	8c/J	8c/J
!LO:LB:g=original	!	!LO:LB:g=original	!LO:LB:g=original	!LO:LB:g=original	!LO:LB:g=original	!	!LO:LB:g=original	!	!LO:LB:g=original	!	!LO:LB:g=original	!	!LO:LB:g=original	!	!LO:LB:g=original	!LO:LB:g=original
=21||	=21||	=21||	=21||	=21||	=21||	=21||	=21||	=21||	=21||	=21||	=21||	=21||	=21||	=21||	=21||	=21||
*M2/2	*	*	*	*	*	*	*	*	*	*	*	*	*	*	*	*
*met(c|)	*	*	*	*	*	*	*	*	*	*	*	*	*	*	*	*
!LO:TX:b:t=Tutti	!	!	!	!	!	!	!	!	!	!	!	!	!	!	!	!
!LO:TX:b:t=Idzmy	!	!	!	!	!	!	!	!	!	!	!	!	!	!	!	!
8r	.	8ryy	2ryy	2ryy	8ryy	.	8ryy	.	8ryy	.	8ryy	.	8ryy	.	2ryy	2ryy
16C/LL	.	16C/LLyy	.	.	16c\yy	Idz-	16c\yy	Idz-	16g\yy	Idz-	16cc\yy	Idz-	16ee\yy	Idz-	.	.
16BB/JJ	6	16BB/JJyy	.	.	16B\yy	-my	16d\yy	-my	16g\yy	-my	16b\yy	-my	16dd\yy	-my	.	.
8C/L	.	8C/Lyy	.	.	8c\yy	prę-	8c\yy	prę-	8g\yy	prę-	8cc\yy	prę-	8ee\yy	prę-	.	.
8BB/	6	8BB/yy	.	.	8B\yy	-dko	8d\yy	-dko	8g\yy	-dko	8g/yy	-dko	8dd\yy	-dko	.	.
8AA/	7	8AA/yy	4ryy	4ryy	8A\yy	nie	8c\yy	nie	8g\yy	nie	8a\yy	nie	8cc\yy	nie	4ryy	4ryy
8D/J	7 #	8D/Jyy	.	.	8D/yy	mieſz-	8A\yy	mieſz-	8f#X\yy	mieſz-	8a\yy	mieſz-	8dd\yy	mieſz-	.	.
!	!	!	!	!	!	!	!LO:LB:g=original	!	!	!	!	!	!	!	!	!
8G\L	.	8G\Lyy	16ryy	16ryy	8G\yy	-kay-	8B\yy	-kay-	8g\yy	-kay-	8g/yy	-kay-	8b\yy	-kay-	16ryy	16ryy
.	.	.	16ee\LLyy	16gg\LLyy	.	.	.	.	.	.	.	.	.	.	16ee\LLyy	16gg\LLyy
16c\L	.	16c\Lyy	16ee\yy	16gg\yy	8GG/yy	-my	8B\yy	-my	8g\yy	-my	8g/yy	-my	8b\yy	-my	16ee\yy	16gg\yy
16B\JJ	6	16B\JJyy	16dd\JJyy	16gg\JJyy	.	.	.	.	.	.	.	.	.	.	16dd\JJyy	16gg\JJyy
!	!	!	!	!	!	!	!	!	!LO:LB:g=original	!	!	!	!	!	!	!
=22	=22	=22	=22	=22	=22	=22	=22	=22	=22	=22	=22	=22	=22	=22	=22	=22
!LO:TX:t=P:problem=mixed beam	!	!	!	!	!	!	!	!	!	!	!	!	!	!	!	!
8c\L	.	8c\Lyy	8ee\Lyy	8gg\Lyy	2ryy	.	2ryy	.	2ryy	.	2ryy	.	2ryy	.	8ee\Lyy	8gg\Lyy
8B\	6	8B\yy	16dd\Lyy	16aa\Lyy	.	.	.	.	.	.	.	.	.	.	8dd\yy	8gg\yy
.	.	.	16gg\JJyy	16bb\JJyy	.	.	.	.	.	.	.	.	.	.	.	.
8A\	7	8A\yy	16aa\LLyy	16ccc\LLyy	.	.	.	.	.	.	.	.	.	.	8cc\yy	8gg\yy
.	.	.	16gg\yy	16bb\yy	.	.	.	.	.	.	.	.	.	.	.	.
8D/J	7 #	8D\Jyy	16aa\yy	16ccc\yy	.	.	.	.	.	.	.	.	.	.	8dd\Jyy	8ff#X\Jyy
.	.	.	16ff#X\JJyy	16bb\JJyy	.	.	.	.	.	.	.	.	.	.	.	.
!	!	!	!	!	!LO:LB:g=original	!	!	!	!	!	!	!	!	!	!LO:TX:t=P:problem=mixed beam	!
8G\L	.	8G\Lyy	16gg\LLyy	16bb\LLyy	8ryy	.	8ryy	.	8ryy	.	8ryy	.	8ryy	.	8dd\Lyy	8gg\Lyy
.	.	.	16gg\yy	16bb\yy	.	.	.	.	.	.	.	.	.	.	.	.
16G\L	.	16G\Lyy	16gg\yy	16bb\yy	16G\yy	idz-	16B\yy	idz-	16g\yy	Idz-	16b\yy	idz-	16dd\yy	idz-	16g/Lyy	16dd\Lyy
16F#X\JJ	6	16F#X\JJyy	16gg\JJyy	16bb\JJyy	16F#X\yy	-my	16A\yy	-my	16a\yy	-my	16dd\yy	-my	16dd\yy	-my	16g/JJyy	16dd\JJyy
!LO:TX:t=P:problem=mixed beam	!	!	!	!	!	!	!	!	!	!	!	!	!	!	!	!
8G\L	.	8G\Lyy	16gg\LLyy	16bb\LLyy	8G\yy	prę-	8B\yy	prę-	8g\yy	prę-	8b\yy	prę-	8dd\yy	prę-	8g/Lyy	8dd\Lyy
.	.	.	16gg\yy	16bb\yy	.	.	.	.	.	.	.	.	.	.	.	.
8D/J	#	8D\Jyy	16gg\yy	16aa\yy	8D/yy	-dko	8A/yy	-dko	8f#X\yy	-dko	8a\yy	-dko	8dd\yy	-dko	8g/Jyy	8dd\Jyy
.	.	.	16ff#X\JJyy	16aa\JJyy	.	.	.	.	.	.	.	.	.	.	.	.
=23	=23	=23	=23	=23	=23	=23	=23	=23	=23	=23	=23	=23	=23	=23	=23	=23
!LO:TX:t=P:problem=mixed beam	!	!	!	!	!	!	!	!	!	!	!	!	!	!	!	!
8G\L	.	8G\Lyy	16gg\LLyy	16bb\LLyy	4ryy	.	4ryy	.	4ryy	.	4ryy	.	4ryy	.	8g/Lyy	8dd\Lyy
.	.	.	16gg\yy	16bb\yy	.	.	.	.	.	.	.	.	.	.	.	.
8D/J	#	8D\Jyy	16gg\yy	16aa\yy	.	.	.	.	.	.	.	.	.	.	8g/Jyy	8dd\Jyy
.	.	.	16ff#X\JJyy	16aa\JJyy	.	.	.	.	.	.	.	.	.	.	.	.
!LO:TX:t=P:problem=mixed beam	!	!LO:TX:t=P:problem=mixed beam	!LO:LB:g=original	!	!	!	!	!	!	!	!	!	!	!	!	!
8GG/L	.	8GG/Lyy	16gg\LLyy	16bb\LLyy	8ryy	.	8ryy	.	8ryy	.	8ryy	.	8ryy	.	8g/Lyy	8dd\Lyy
.	.	.	16gg\yy	16bb\yy	.	.	.	.	.	.	.	.	.	.	.	.
*	*	*	*	*	*	*	*	*	*	*	*	*ij	*	*	*	*
16G\L	.	16G\Lyy	16gg\yy	16bb\yy	16G\yy	nie	16d\yy	idz-	16g\yy	idz-	16dd\yy	idz-	16b\yy	nie	16g/Lyy	16dd\Lyy
16F#X\JJ	6	16F#X\JJyy	16gg\JJyy	16bb\JJyy	16F#X\yy	mieſz-	16A/yy	-my	16a\yy	-my	16a\yy	-my	16dd\yy	mieſz-	16g/JJyy	16dd\JJyy
!LO:TX:t=P:problem=mixed beam	!	!	!	!	!	!	!	!	!	!	!	!	!	!	!	!
8G\L	.	8G\Lyy	16gg\LLyy	16bb\LLyy	8G\yy	-kay-	8d\yy	prę-	8g\yy	prę-	8g/yy	prę-	8b\yy	-kay-	8g/Lyy	8dd\Lyy
.	.	.	16gg\yy	16bb\yy	.	.	.	.	.	.	.	.	.	.	.	.
8D/J	#	8D\yy	16gg\yy	16aa\yy	8D/yy	-my	8d\yy	-dko	8f#X\yy	-dko	8f#X/yy	-dko	8a\yy	-my	8g/yy	8dd\yy
*	*	*	*	*	*	*	*	*	*	*	*	*Xij	*	*	*	*
.	.	.	16ff#X\JJyy	16aa\JJyy	.	.	.	.	.	.	.	.	.	.	.	.
!LO:TX:t=P:problem=mixed beam	!	!	!	!	!	!	!	!	!	!	!	!	!	!	!	!
8G\L	.	8G\yy	16gg\LLyy	16bb\LLyy	4ryy	.	4ryy	.	4ryy	.	4ryy	.	4ryy	.	8g/yy	8dd\yy
.	.	.	16gg\yy	16bb\yy	.	.	.	.	.	.	.	.	.	.	.	.
8D/J	#	8D\Jyy	16gg\yy	16aa\yy	.	.	.	.	.	.	.	.	.	.	8g/Jyy	8dd\Jyy
.	.	.	16ff#X\JJyy	16aa\JJyy	.	.	.	.	.	.	.	.	.	.	.	.
!	!	!	!	!	!	!	!	!	!	!	!	!	!LO:LB:g=original	!	!	!LO:LB:g=original
=24	=24	=24	=24	=24	=24	=24	=24	=24	=24	=24	=24	=24	=24	=24	=24	=24
!LO:TX:t=P:problem=mixed beam	!	!LO:TX:t=P:problem=mixed beam	!	!	!	!	!	!	!	!	!	!	!	!	!	!
8AA/L	.	8AA/Lyy	16ee\LLyy	16aa\LLyy	8ryy	.	8ryy	.	8ryy	.	8ryy	.	8ryy	.	8e/Lyy	8e/Lyy
.	.	.	16aa\yy	16ccc\yy	.	.	.	.	.	.	.	.	.	.	.	.
16A\L	.	16A\Lyy	16aa\yy	16ccc\yy	16A\yy	idz-	16A/yy	idz-	16e\yy	Idz-	16a\yy	idz-	16cc\yy	idz-	16e/Lyy	16e/Lyy
16G#X\JJ	6	16G#X\JJyy	16aa\JJyy	16ccc\JJyy	16G#X\yy	-my	16e\yy	-my	16e\yy	-my	16g#X\yy	-my	16b\yy	-my	16e/JJyy	16e/JJyy
!	!	!	!	!LO:LB:g=original	!	!	!	!	!	!	!LO:LB:g=original	!	!	!	!	!
8A\L	.	8A\Lyy	16aa\LLyy	16ccc\LLyy	8A\yy	prę-	8A/yy	prę-	8e\yy	prę-	8a\yy	prę-	8cc\yy	prę-	8e/Lyy	8e/Lyy
.	.	.	16aa\yy	16ccc\yy	.	.	.	.	.	.	.	.	.	.	.	.
8E\J	#	8E\yy	16aa\yy	16bb\yy	8E\yy	-dko	8G#X/yy	-dko	8e\yy	-dko	8g#X\yy	-dko	8b\yy	-dko	8e/Jyy	8e/Jyy
.	.	.	16gg#X\JJyy	16bb\JJyy	.	.	.	.	.	.	.	.	.	.	.	.
!	!	!	!	!	!	!	!	!	!	!	!	!	!	!	!LO:LB:g=original	!
8A\L	.	8A\yy	16aa\LLyy	16ccc\LLyy	4ryy	.	4ryy	.	4ryy	.	4ryy	.	4ryy	.	8e/Lyy	8e/Lyy
.	.	.	16aa\yy	16ccc\yy	.	.	.	.	.	.	.	.	.	.	.	.
8E\J	#	8E\Jyy	16aa\yy	16bb\yy	.	.	.	.	.	.	.	.	.	.	16e/Lyy	16e/Lyy
.	.	.	16gg#X\JJyy	16bb\JJyy	.	.	.	.	.	.	.	.	.	.	16e/JJyy	16e/JJyy
!LO:LB:g=original	!	!	!	!	!	!	!	!	!	!	!	!	!	!	!	!
!LO:TX:t=P:problem=mixed beam	!	!LO:TX:t=P:problem=mixed beam	!	!	!	!	!	!	!	!	!	!	!	!	!	!
8AA/L	.	8AA/Lyy	16aa\LLyy	16ccc\LLyy	8ryy	.	8ryy	.	8ryy	.	8ryy	.	8ryy	.	8e/Lyy	8e/Lyy
.	.	.	16aa\yy	16ccc\yy	.	.	.	.	.	.	.	.	.	.	.	.
16A\L	.	16A\Lyy	16aa\yy	16ccc\yy	16A\yy	nie	16e\yy	idz-	16a\yy	idz-	16a\yy	nie	16cc\yy	nie	8e/Jyy	8e/Jyy
16G#X\JJ	.	16G#X\JJyy	16aa\JJyy	16ccc\JJyy	16G#X\yy	mieſz-	16B\yy	-my	16b\yy	-my	16b\yy	mieſz-	16ee\yy	mieſz-	.	.
!	!	!LO:LB:g=original	!	!	!	!	!	!	!	!	!	!	!	!	!	!
=25	=25	=25	=25	=25	=25	=25	=25	=25	=25	=25	=25	=25	=25	=25	=25	=25
8A\L	.	8A\Lyy	16aa\LLyy	16ccc\LLyy	8A\yy	-kay-	8c\yy	prę-	8a\yy	prę-	8cc\yy	-kay-	8ee\yy	-kay-	8e/Lyy	8e/Lyy
.	.	.	16aa\yy	16ccc\yy	.	.	.	.	.	.	.	.	.	.	.	.
8E\	#	8E\yy	16aa\yy	16bb\yy	8E\yy	-my	8B\yy	-dko	8g#X\yy	-dko	8b\yy	-my	8ee\yy	-my	8e/Jyy	8e/Jyy
.	.	.	16gg#X\JJyy	16bb\JJyy	.	.	.	.	.	.	.	.	.	.	.	.
!	!	!	!	!	!	!	!LO:LB:g=original	!	!	!	!	!	!	!	!	!
8A\	.	8A\yy	16aa\LLyy	16ccc\LLyy	4ryy	.	4ryy	.	4ryy	.	4ryy	.	4ryy	.	8e/Lyy	8e/Lyy
.	.	.	16aa\yy	16ccc\yy	.	.	.	.	.	.	.	.	.	.	.	.
8E\J	#	8E\Jyy	16aa\yy	16bb\yy	.	.	.	.	.	.	.	.	.	.	16e/Lyy	16e/Lyy
.	.	.	16ggn\JJyy	16bb\JJyy	.	.	.	.	.	.	.	.	.	.	16e/JJyy	16e/JJyy
8Fn\L	.	8F\Lyy	16ff\LLyy	16aa\LLyy	8ryy	.	8ryy	.	8ryy	.	8ryy	.	8ryy	.	8c/Lyy	8c/Lyy
.	.	.	16ff\yy	16aa\yy	.	.	.	.	.	.	.	.	.	.	.	.
16F\L	.	16F\Lyy	16ff\yy	16aa\yy	16Fn\yy	idz-	16c\yy	nie	16a\yy	idz-	16fn/yy	idz-	16cc\yy	idz-	16c/Lyy	16c/Lyy
16E\JJ	6	16E\JJyy	16ff\JJyy	16aa\JJyy	16E\yy	-my	16e\yy	mieſz-	16gn\yy	-my	16g/yy	-my	16cc\yy	-my	16c/JJyy	16c/JJyy
!	!	!	!	!	!	!	!	!	!LO:LB:g=original	!	!	!	!	!	!	!
8F\L	.	8F\Lyy	16ff\LLyy	16aa\LLyy	8F\yy	prę-	8c\yy	kay-	8a\yy	prę-	8a\yy	prę-	8cc\yy	prę-	8c/Lyy	8c/Lyy
.	.	.	16ff\yy	16aa\yy	.	.	.	.	.	.	.	.	.	.	.	.
8C\J	.	8C\Jyy	16ff\yy	16gg\yy	8C/yy	-dko	8e\yy	-my	8g\yy	-dko	8cc\yy	-dko	8cc\yy	-dko	8c/Jyy	8c/Jyy
.	.	.	16ee\JJyy	16gg\JJyy	.	.	.	.	.	.	.	.	.	.	.	.
!	!	!	!LO:LB:g=original	!	!LO:LB:g=original	!	!	!	!	!	!	!	!	!	!	!
=26	=26	=26	=26	=26	=26	=26	=26	=26	=26	=26	=26	=26	=26	=26	=26	=26
!LO:TX:t=P:problem=mixed beam	!	!	!	!	!	!	!	!	!	!	!	!	!	!	!	!
8F\L	.	8F\Lyy	16ff\LLyy	16aa\LLyy	4ryy	.	4ryy	.	4ryy	.	4ryy	.	4ryy	.	8c/Lyy	8c/Lyy
.	.	.	16ff\yy	16aa\yy	.	.	.	.	.	.	.	.	.	.	.	.
8C/J	.	8C\Jyy	16ff\yy	16gg\yy	.	.	.	.	.	.	.	.	.	.	16c/Lyy	16c/Lyy
.	.	.	16ee\JJyy	16gg\JJyy	.	.	.	.	.	.	.	.	.	.	16c/JJyy	16c/JJyy
!LO:TX:t=P:problem=mixed beam	!	!LO:TX:t=P:problem=mixed beam	!	!	!	!	!	!	!	!	!	!	!	!	!	!
8FF/L	.	8FF/Lyy	16ff\LLyy	16aa\LLyy	8ryy	.	8ryy	.	8ryy	.	8ryy	.	8ryy	.	8c/Lyy	8c/Lyy
.	.	.	16ff\yy	16aa\yy	.	.	.	.	.	.	.	.	.	.	.	.
16F\L	.	16F\Lyy	16ff\yy	16aa\yy	16F\yy	nie	16c\yy	nie	16f\yy	nie	16a\yy	nie	16cc\yy	nie	8c/Jyy	8c/Jyy
16E\JJ	6	16E\JJyy	16ff\JJyy	16aa\JJyy	16E\yy	mieſz-	16c\yy	mieſz-	16g\yy	mieſz-	16cc\yy	mieſz-	16ee\yy	mieſz-	.	.
8F\L	.	8F\Lyy	16ff\LLyy	16aa\LLyy	8F\yy	-kay-	8c\yy	-kay-	8a\yy	-kay-	8cc\yy	-kay-	8cc\yy	-kay-	8c/Lyy	8c/Lyy
.	.	.	16ff\yy	16aa\yy	.	.	.	.	.	.	.	.	.	.	.	.
8C\	.	8C\yy	16ff\yy	16gg\yy	8C/yy	-my	8c\yy	-my	8g\yy	-my	8cc\yy	-my	8ee\yy	-my	16c/Lyy	16c/Lyy
.	.	.	16ee\JJyy	16gg\JJyy	.	.	.	.	.	.	.	.	.	.	16c/JJyy	16c/JJyy
8F\	.	8F\yy	16ff\LLyy	16aa\LLyy	8F\yy	te-	8c\yy	te-	8f\yy	te-	8cc\yy	te-	8a\yy	te-	8c/Lyy	8c/Lyy
.	.	.	16ff\yy	16aa\yy	.	.	.	.	.	.	.	.	.	.	.	.
8E\J	6	8E\Jyy	16ff\yy	16gg\yy	8E\yy	-go	8G/yy	-go	8g\yy	-go	8cc\yy	-go	8cc\yy	-go	8c/Jyy	8c/Jyy
.	.	.	16ee\JJyy	16gg\JJyy	.	.	.	.	.	.	.	.	.	.	.	.
!	!	!	!	!LO:LB:g=original	!	!	!	!	!	!	!	!	!LO:LB:g=original	!	!	!
=27	=27	=27	=27	=27	=27	=27	=27	=27	=27	=27	=27	=27	=27	=27	=27	=27
8D/L	6	8D/Lyy	16ff\LLyy	16bb\LLyy	8D/yy	kro-	8B\yy	kro-	8f\yy	kro-	8b\yy	kro-	8dd\yy	kro-	8c/Lyy	8c/Lyy
.	.	.	16ff\yy	16bb\yy	.	.	.	.	.	.	.	.	.	.	.	.
8C/J	.	8C/Jyy	16ee\yy	16ccc\yy	8C/yy	-la	8c\yy	-la	8e\yy	-la	8g/yy	-la	8ee\yy	-la	16c/Lyy	16c/Lyy
.	.	.	16ee\JJyy	16ccc\JJyy	.	.	.	.	.	.	.	.	.	.	16c/JJyy	16c/JJyy
!LO:TX:t=P:problem=mixed beam	!	!LO:TX:t=P:problem=mixed beam	!	!	!	!	!	!	!	!	!	!	!	!	!	!
8G\L	4	8G\Lyy	16ee\LLyy	16ccc\LLyy	8G\yy	przy-	8.c\yy	przy-	8d\yy	przy-	8g/yy	przy-	8.dd\yy	przy-	8c/Lyy	8c/Lyy
.	.	.	16ee\yy	16ccc\yy	.	.	.	.	.	.	.	.	.	.	.	.
8GG/J	3	8GG/Jyy	16dd\yy	16bb\yy	8GG/yy	-wi-	.	.	16g\LLyy	-wi-	8g/yy	-wi-	.	.	16c/Lyy	16c/Lyy
.	.	.	16dd\JJyy	16bb\JJyy	.	.	16B\yy	-wi-	16f\JJyy	.	.	.	16dd\yy	-wi-	16c/JJyy	16c/JJyy
!	!	!	!	!	!	!	!	!	!	!	!LO:LB:g=original	!	!	!	!	!LO:LB:g=original
8C/L	.	8C/Lyy	16ee\LLyy	16ccc\LLyy	8C/yy	-tay-	8c\yy	-tay-	8e\yy	-tay-	8cc\yy	-tay-	8cc\yy	-tay-	8c/Lyy	8c/Lyy
.	.	.	16gg\yy	16ccc\yy	.	.	.	.	.	.	.	.	.	.	.	.
8C/J	.	8C/Jyy	16gg\yy	16ccc\yy	8C/yy	-my	8G/yy	-my	8e\yy	-my	8cc\yy	-my	8cc\yy	-my	8c/Jyy	8c/Jyy
.	.	.	16gg\JJyy	16ccc\JJyy	.	.	.	.	.	.	.	.	.	.	.	.
8r	.	8ryy	16gg\LLyy	16ccc\LLyy	8ryy	.	8ryy	.	8ryy	.	8ryy	.	8ryy	.	16ryy	8ryy
.	.	.	16gg\yy	16ccc\yy	.	.	.	.	.	.	.	.	.	.	16e/LLyy	.
16G\LL	.	16G\LLyy	16gg\yy	16bb\yy	16G\yy	przy-	16G/yy	przy-	16g\yy	przy-	16b\yy	przy-	16dd\yy	przy-	16g/yy	16g/LLyy
16G\JJ	.	16G\JJyy	16gg\JJyy	16bb\JJyy	16G\yy	-wi-	16B\yy	-wi-	16g\yy	-wi-	16b\yy	-wi-	16dd\yy	-wi-	16g/JJyy	16g/JJyy
!	!	!	!	!	!	!	!LO:LB:g=original	!	!	!	!	!	!	!	!LO:LB:g=original	!
=28	=28	=28	=28	=28	=28	=28	=28	=28	=28	=28	=28	=28	=28	=28	=28	=28
8C/L	.	8C/Lyy	16gg\LLyy	16ccc\LLyy	8C/yy	-tay-	8c\yy	-tay-	8g\yy	-tay-	8cc\yy	-tay-	8ee\yy	-tay-	8e/Lyy	8g/Lyy
.	.	.	16gg\yy	16ccc\yy	.	.	.	.	.	.	.	.	.	.	.	.
8C/J	.	8C/Jyy	16gg\yy	16ccc\yy	8C/yy	-my	8G/yy	-my	8g\yy	-my	8cc\yy	-my	8ee\yy	-my	8e/Jyy	8g/Jyy
.	.	.	16gg\JJyy	16ccc\JJyy	.	.	.	.	.	.	.	.	.	.	.	.
8r	.	8ryy	16gg\LLyy	16ccc\LLyy	8ryy	.	8ryy	.	8ryy	.	8ryy	.	8ryy	.	8ryy	8ryy
.	.	.	16gg\yy	16ccc\yy	.	.	.	.	.	.	.	.	.	.	.	.
16G\LL	.	16G\LLyy	16gg\yy	16bb\yy	16G\yy	przy-	16G/yy	przy-	16g\yy	przy-	16b\yy	przy-	16dd\yy	przy-	16g/LLyy	16g/LLyy
16G\JJ	.	16G\JJyy	16gg\JJyy	16bb\JJyy	16G\yy	-wi-	16B\yy	-wi-	16g\yy	-wi-	16b\yy	-wi-	16dd\yy	-wi-	16g/JJyy	16g/JJyy
!LO:TX:t=P:problem=mixed beam	!	!LO:TX:t=P:problem=mixed beam	!	!	!	!	!	!	!LO:LB:g=original	!	!	!	!	!	!	!
8c\L	.	8c\Lyy	16gg\LLyy	16ccc\LLyy	8C/yy	-tay-	8e\yy	-tay-	8g\yy	-tay-	8cc\yy	-tay-	8cc\yy	-tay-	8e/Lyy	8g/Lyy
.	.	.	16gg\yy	16ccc\yy	.	.	.	.	.	.	.	.	.	.	.	.
8C/J	.	8C/Jyy	16gg\yy	16ccc\yy	8C/yy	-my	8e\yy	-my	8g\yy	-my	8cc\yy	-my	8cc\yy	-my	8e/Jyy	8g/Jyy
.	.	.	16gg\JJyy	16ccc\JJyy	.	.	.	.	.	.	.	.	.	.	.	.
!LO:LB:g=original	!	!	!	!	!	!	!	!	!	!	!	!	!	!	!	!
8r	.	8ryy	16gg\LLyy	16ccc\LLyy	8ryy	.	8ryy	.	8ryy	.	8ryy	.	8ryy	.	8ryy	8ryy
.	.	.	16gg\yy	16ccc\yy	.	.	.	.	.	.	.	.	.	.	.	.
8G\	.	8G\yy	16gg\yy	16bb\yy	8G\yy	wi-	8d\yy	wi-	8g\yy	wi-	8g/yy	Wi-	8b\yy	wi-	8g/yy	8g/yy
.	.	.	16gg\JJyy	16bb\JJyy	.	.	.	.	.	.	.	.	.	.	.	.
!	!	!LO:LB:g=original	!LO:LB:g=original	!	!LO:LB:g=original	!	!	!	!	!	!	!	!	!	!	!
=29	=29	=29	=29	=29	=29	=29	=29	=29	=29	=29	=29	=29	=29	=29	=29	=29
4C/	.	4C/yy	16bb\LLyy	16ccc\LLyy	8C/yy	-tay-	8e\yy	-tay-	8e\yy	-tay-	8g/yy	-tay-	8cc\yy	-tay-	8c/Lyy	8e/Lyy
.	.	.	16bb\yy	16ccc\yy	.	.	.	.	.	.	.	.	.	.	.	.
.	.	.	16bb\yy	16ccc\yy	16C/yy	-my	16d\yy	-my	16e\yy	-my	16b\yy	-my	16dd\yy	-my	16c/Lyy	16e/Lyy
.	.	.	16bb\JJyy	16ccc\JJyy	16D/yy	wi-	16c\yy	wi-	16e\yy	wi-	16cc\yy	wi-	16ee\yy	wi-	16c/JJyy	16e/JJyy
!	!	!	!	!	!	!	!	!	!	!	!	!	!LO:LB:g=original	!	!	!
8E\L	6	8E\Lyy	16bb\LLyy	16ccc\LLyy	8E\yy	-tay-	8c\yy	-tay-	8g\yy	-tay-	8cc\yy	-tay-	8ee\yy	-tay-	8e/Lyy	8g/Lyy
.	.	.	16bb\yy	16ccc\yy	.	.	.	.	.	.	.	.	.	.	.	.
8G\J	.	8G\Jyy	16bb\yy	16bb\yy	16G\yy	-my	16B\yy	-my	16d\yy	-my	16b\yy	-my	16dd\yy	-my	16g/Lyy	16e/Lyy
.	.	.	16bb\JJyy	16bb\JJyy	16G\yy	wi-	16B\yy	wi-	16g\yy	wi-	16b\yy	wi-	16dd\yy	wi-	16g/JJyy	16e/JJyy
8C/L	.	8C/Lyy	8gg\Lyy	8ccc\Lyy	8C/yy	-tay-	8G/yy	-tay-	8e\yy	-tay-	8cc\yy	-tay-	4ee\yy	-tay-	8e/Lyy	8c/Lyy
8C/J	.	8C/Jyy	8gg\Jyy	8ccc\Jyy	8C/yy	-my	8G/yy	-my	8e\yy	-my	8cc\yy	-my	.	.	8c/Jyy	8c/Jyy
4r	.	4ryy	4ryy	4ryy	4ryy	.	4ryy	.	4ryy	.	4ryy	.	4ee\yy	-my	4ryy	4ryy
==	==	==	==	==	==	==	==	==	==	==	==	==	==	==	==	==
*-	*-	*-	*-	*-	*-	*-	*-	*-	*-	*-	*-	*-	*-	*-	*-	*-
!!!system-decoration: [(g1)][(g2)][(g3)]<s11>
!!!ENC: Tomasz Grochalski
!!!END: 2020-11-27
!!!ENC: Andrzej Kubiczek
!!!END: 2021-12-29
!!!YEC: Copyright 2022 Narodowy Instytut Fryderyka Chopina (https://polishscores.org)
!!!YEM: License CC-BY-4.0 (https://creativecommons.org/licenses/by/4.0)
